dist/icons/skills/jquery.svg

<svg width="162" height="37" viewBox="0 0 162 37" fill="none" xmlns="http://www.w3.org/2000/svg">
<path fill-rule="evenodd" clip-rule="evenodd" d="M154.373 2.70654L161.139 2.74372C161.139 2.74372 148.56 19.7888 147.533 21.178C147.199 21.6279 146.692 22.113 146.435 22.7144C145.786 24.2262 145.119 27.5424 145.119 27.5424L138.928 27.5731C138.928 27.5731 139.891 24.1166 139.852 22.2754C139.817 20.6668 138.996 19.0605 138.535 17.4473C138.07 15.8146 137.438 12.6192 137.438 12.6192H143.802L144.68 16.1306L154.373 2.70654Z" fill="#1A1918"/>
<path fill-rule="evenodd" clip-rule="evenodd" d="M141.561 6.30113C142.81 7.05397 143.576 11.206 143.576 11.206C143.576 11.206 137.043 11.3024 133.487 11.3024H130.415L126.684 27.5423H120.979C120.979 27.5423 124.529 9.89368 125.368 6.69397C125.64 5.65827 127.229 5.8358 129.912 5.8358H134.198C136.966 5.8358 140.201 5.48261 141.561 6.30113Z" fill="#1A1918"/>
<path fill-rule="evenodd" clip-rule="evenodd" d="M114.998 14.2105C114.998 14.2105 115.176 13.168 114.395 11.961C113.728 10.9318 113.111 10.6926 111.356 10.6378C106.398 10.482 106.494 14.1557 106.494 14.1557L114.998 14.2105ZM120.375 10.0036C121.102 12.624 119.717 18.7818 119.717 18.7818C119.717 18.7818 112.485 18.661 108.525 18.7818C107.293 18.8193 105.819 18.6479 105.452 19.2208C104.936 20.0238 105.64 21.2596 106.238 21.7817C106.925 22.383 108.263 22.4512 108.744 22.5125C111.959 22.9208 118.688 22.6178 118.688 22.6178L117.522 27.7793C117.522 27.7793 108.013 28.2558 103.257 27.1209C102.318 26.8972 101.438 26.4452 100.843 25.8042C100.681 25.6289 100.54 25.3897 100.387 25.1834C100.264 25.0186 99.9065 24.4767 99.7461 24.0485C98.6599 21.154 99.8734 15.6084 101.063 12.637C101.201 12.2925 101.374 11.856 101.557 11.4848C101.785 11.022 101.978 10.4996 102.16 10.223C102.283 10.0321 102.435 9.90914 102.562 9.72914C102.709 9.5163 102.88 9.30997 103.038 9.12594C103.477 8.61661 103.975 8.25662 104.574 7.80925C106.556 6.32557 110.142 5.17339 114.45 5.61456C116.071 5.78124 118.521 6.36058 119.717 8.0286C120.037 8.4741 120.195 9.3583 120.375 10.0036Z" fill="#1A1918"/>
<path fill-rule="evenodd" clip-rule="evenodd" d="M94.2048 5.81604L99.7373 5.7832C99.7373 5.7832 96.6541 20.4099 95.0828 27.5424H88.7183C84.2701 27.5424 80.3089 28.0932 78.6235 24.9087C76.9886 21.8168 78.5488 16.7319 79.2818 13.2775C79.7998 10.8328 80.8907 5.83587 80.8907 5.83587L86.6228 5.7832C86.6228 5.7832 85.0031 13.5628 84.3293 17.4472C84.0879 18.8386 83.5901 20.1488 84.1099 21.178C84.6037 22.157 85.2949 22.227 87.4016 22.2753C88.069 22.2908 90.2547 22.2753 90.2547 22.2753L94.2048 5.81604Z" fill="#1A1918"/>
<path fill-rule="evenodd" clip-rule="evenodd" d="M68.3091 16.3499C68.8884 14.2915 69.7332 12.0596 69.6257 10.2051C69.5096 8.22139 67.8462 6.4152 66.773 6.03568C63.5405 4.89434 60.5142 6.48986 59.3116 7.79106C57.7554 9.47674 57.2287 11.4453 56.6779 14.1555C56.2677 16.1677 55.9318 18.2921 56.6779 19.8612C57.9989 22.6353 62.1181 22.0296 66.5534 22.0559C67.2117 20.2916 67.756 18.3097 68.3091 16.3499ZM75.9902 8.23006C76.6222 12.8255 74.1973 17.8974 72.5271 22.3081C74.2301 22.4618 75.7225 22.2843 75.83 22.4113C75.9418 22.5761 74.6887 27.6762 74.2518 27.6892C72.9001 27.7245 68.4212 27.7617 66.5534 27.7617C60.4591 27.7617 54.7577 28.1589 51.8501 25.1283C50.6694 23.8971 49.8531 21.7858 49.6554 20.3002C49.3261 17.8202 49.7388 15.0902 50.3138 12.8388C50.8339 10.8064 51.501 8.88841 52.5085 7.13272C55.0693 2.66247 59.5244 -0.655588 66.9924 0.110262C68.4407 0.25959 70.5211 0.89377 71.8204 1.6463C71.9103 1.69928 72.2244 1.94929 72.2966 1.99328C74.0523 3.11046 75.6522 5.77668 75.9902 8.23006Z" fill="#1A1918"/>
<path fill-rule="evenodd" clip-rule="evenodd" d="M49.0256 5.8425C48.6569 7.52135 48.2882 9.42421 47.8997 11.0832H41.7549C42.2311 9.24421 42.5955 7.41602 43.0716 5.81616C45.038 5.81616 46.8662 5.8425 49.0256 5.8425Z" fill="#1A1918"/>
<path fill-rule="evenodd" clip-rule="evenodd" d="M41.5356 12.6194H47.4607C46.6862 16.9078 45.1523 23.8249 43.9496 28.6396C43.1968 31.6528 42.6943 33.8519 40.6576 35.4428C40.4754 35.5856 40.3704 35.5177 40.2189 35.6624C39.8434 36.0202 38.1075 36.4351 37.1465 36.5401C35.5838 36.7093 33.8173 36.5621 31.8971 36.5227C32.3996 34.6859 32.9681 32.4804 33.4158 30.8343C38.0967 31.4007 38.2154 26.9763 39.1215 22.7145C39.6461 20.2522 41.2351 13.6071 41.5356 12.6194Z" fill="#1A1918"/>
<path fill-rule="evenodd" clip-rule="evenodd" d="M27.7097 23.8116L27.5827 24.1406C25.4187 28.354 21.5848 30.9394 16.116 31.0534C13.5595 31.1061 11.1235 30.4502 9.53227 29.7367C6.09803 28.1939 3.20967 25.3325 1.63212 22.2753C-0.630726 17.8927 -1.03875 11.7963 3.66633 7.24268C3.73883 7.24268 3.09566 8.23004 3.16816 8.23004L3.03866 8.65138C-0.351897 19.2664 10.094 28.363 20.2483 27.3227C22.6886 27.0727 25.8007 25.7361 27.7097 23.8116Z" fill="#21609B"/>
<path fill-rule="evenodd" clip-rule="evenodd" d="M21.565 19.4223C24.1196 19.44 26.788 18.246 28.3681 16.5696C26.9857 20.0788 22.983 22.3345 17.6149 21.617C13.1205 21.0157 8.8389 16.4928 8.39774 11.9609C8.07522 8.66263 9.22493 6.6941 11.1191 4.3064C10.4608 5.55524 10.2148 6.51844 10.1534 7.13279C9.43374 14.2674 15.8527 19.3851 21.565 19.4223Z" fill="#21609B"/>
<path fill-rule="evenodd" clip-rule="evenodd" d="M28.1116 10.5607C27.7144 11.4716 25.4277 13.1919 24.418 13.407C20.4196 14.2586 17.8587 12.3626 16.5176 10.2051C16.318 9.88256 15.9494 9.0027 15.8834 8.77871C15.3632 7.01001 15.6024 4.3348 17.1542 2.94995C16.6867 4.26664 16.6186 5.79617 16.8645 6.79035C17.0136 7.39169 17.4677 8.44102 17.9222 9.10122C18.7494 10.3039 19.2739 10.5961 20.3363 11.2346C20.8146 11.5221 21.328 11.7526 21.5498 11.8161C22.557 12.1123 24.6835 12.8936 28.1116 10.5607Z" fill="#21609B"/>
</svg>

<svg width="162" height="37" fill="none" xmlns="http://www.w3.org/2000/svg"><path fill-rule="evenodd" clip-rule="evenodd" d="M154.373 2.707l6.766.037s-12.579 17.045-13.606 18.434c-.334.45-.841.935-1.098 1.536-.649 1.512-1.316 4.828-1.316 4.828l-6.191.031s.963-3.456.924-5.298c-.035-1.608-.856-3.214-1.317-4.828-.465-1.632-1.097-4.828-1.097-4.828h6.364l.878 3.512 9.693-13.424z" fill="#1A1918"/><path fill-rule="evenodd" clip-rule="evenodd" d="M141.561 6.301c1.249.753 2.015 4.905 2.015 4.905s-6.533.096-10.089.096h-3.072l-3.731 16.24h-5.705s3.55-17.648 4.389-20.848c.272-1.036 1.861-.858 4.544-.858h4.286c2.768 0 6.003-.353 7.363.465zM114.998 14.21s.178-1.042-.603-2.249c-.667-1.03-1.284-1.268-3.039-1.323-4.958-.156-4.862 3.518-4.862 3.518l8.504.054zm5.377-4.206c.727 2.62-.658 8.778-.658 8.778s-7.232-.121-11.192 0c-1.232.037-2.706-.134-3.073.439-.516.803.188 2.039.786 2.56.687.602 2.025.67 2.506.732 3.215.408 9.944.105 9.944.105l-1.166 5.161s-9.509.477-14.265-.658c-.939-.224-1.819-.676-2.414-1.317-.162-.175-.303-.414-.456-.62-.123-.165-.48-.707-.64-1.136-1.087-2.894.126-8.44 1.316-11.411.138-.345.311-.781.494-1.152.228-.463.421-.985.603-1.262.123-.19.275-.314.402-.494.147-.213.318-.419.476-.603.439-.51.937-.87 1.536-1.317 1.982-1.483 5.568-2.636 9.876-2.194 1.621.166 4.071.746 5.267 2.414.32.445.478 1.33.658 1.975zM94.205 5.816l5.532-.033s-3.083 14.627-4.654 21.76h-6.365c-4.448 0-8.41.55-10.094-2.634-1.635-3.092-.075-8.177.658-11.631.518-2.445 1.609-7.442 1.609-7.442l5.732-.053s-1.62 7.78-2.294 11.664c-.241 1.392-.739 2.702-.22 3.731.495.979 1.186 1.049 3.293 1.097.667.016 2.853 0 2.853 0l3.95-16.459zM68.31 16.35c.578-2.059 1.423-4.29 1.316-6.145-.116-1.984-1.78-3.79-2.853-4.17-3.232-1.14-6.259.455-7.461 1.756-1.557 1.686-2.083 3.654-2.634 6.364-.41 2.013-.746 4.137 0 5.706 1.32 2.774 5.44 2.169 9.875 2.195.659-1.764 1.203-3.746 1.756-5.706zm7.68-8.12c.632 4.595-1.793 9.667-3.463 14.078 1.703.154 3.195-.024 3.303.103.112.165-1.141 5.265-1.578 5.278-1.352.035-5.83.073-7.699.073-6.094 0-11.795.397-14.703-2.634-1.18-1.23-1.997-3.342-2.195-4.828-.329-2.48.084-5.21.659-7.461.52-2.033 1.187-3.95 2.194-5.706C55.07 2.663 59.524-.656 66.992.11c1.449.15 3.53.784 4.828 1.536.09.053.404.303.477.347 1.755 1.117 3.355 3.784 3.693 6.237zM49.026 5.843c-.37 1.678-.738 3.581-1.126 5.24h-6.145c.476-1.839.84-3.667 1.317-5.267 1.966 0 3.794.027 5.954.027zM41.536 12.62h5.925c-.775 4.288-2.309 11.205-3.511 16.02-.753 3.013-1.256 5.212-3.292 6.803-.183.143-.288.075-.44.22-.375.357-2.11.772-3.072.877-1.562.17-3.329.022-5.249-.017.503-1.837 1.071-4.043 1.519-5.689 4.68.567 4.8-3.858 5.706-8.12.524-2.462 2.113-9.107 2.414-10.095z" fill="#1A1918"/><path fill-rule="evenodd" clip-rule="evenodd" d="M27.71 23.812l-.127.329c-2.164 4.213-5.998 6.798-11.467 6.912-2.556.053-4.992-.603-6.584-1.316-3.434-1.543-6.322-4.404-7.9-7.462-2.263-4.382-2.67-10.479 2.034-15.032.073 0-.57.987-.498.987l-.13.421c-3.39 10.615 7.056 19.712 17.21 18.672 2.44-.25 5.553-1.587 7.462-3.511z" fill="#21609B"/><path fill-rule="evenodd" clip-rule="evenodd" d="M21.565 19.422c2.555.018 5.223-1.176 6.803-2.852-1.382 3.509-5.385 5.764-10.753 5.047-4.494-.601-8.776-5.124-9.217-9.656-.323-3.298.827-5.267 2.721-7.655-.658 1.25-.904 2.212-.966 2.827-.72 7.134 5.7 12.252 11.412 12.29z" fill="#21609B"/><path fill-rule="evenodd" clip-rule="evenodd" d="M28.112 10.56c-.398.912-2.684 2.632-3.694 2.847-3.998.852-6.56-1.044-7.9-3.202-.2-.322-.569-1.202-.635-1.426-.52-1.769-.28-4.444 1.271-5.83-.467 1.318-.535 2.847-.29 3.841.15.602.604 1.651 1.058 2.311.827 1.203 1.352 1.495 2.414 2.134.479.287.992.518 1.214.581 1.007.296 3.133 1.078 6.562-1.255z" fill="#21609B"/></svg>
